X:1
T:Title
%%score [ 1 2 3 4 ]
L:1/8
Q:1/4=160
M:2/2
K:F
V:1 treble nm="S."
V:2 treble nm="A."
V:3 treble-8 transpose=12 nm="T."
V:4 bass nm="B."
V:1
 A4 A2 A2 B6 A2 | G4 ^F4 G8 | B4 B2 B2 c4 c4 | G2 G2 c2 c2 B4 B4 | A4 G8 ^F4 |"^3" G8 z4 | z12 | %7
w: Ung jour que ma- da-|me dor- moit,|Mon- sieur bran- loit, bran-|loit, bran- loit, bran- loit sa|cham- be- rie-|re.||
 z12 | z12 | z8 d4 | d8 d4 | c8 B4 | A8 G4 |[M:2/2] A8 AA A2 A4 | BB B2 GG G2 BB B2 A4 | %15
w: ||Et|el- le|qui la|dance ay-|moit Re- mu- oit fort,|re- mu- oit, re- mu- oit, re- mu- oit fort,|
 AA A2 G2 G2 B2 B2 A2 A2 | AA A2 G2 G2 B2 B2 A4 | A8 z4 A4 | A4 A4 c4 c4 | B6 A2 G8 | F8 z4 A4 | %21
w: re- mu- oit fort bien le der- rie- re,|re- mu- oit fort bien le der- rie-|re, En-|fin la gar- se|tou- te fie-|re, Luy|
 c8 d8 | d4 c6 B2 B8 A4 | B4 d4 d4 | d4 B4 B4 | A12 G4 | F4 F4 A8 | B8 | c8 | %29
w: dict: «Mon-|sieur, par * vos- tre|foy, Qui le|faict mieulx, ma-|dame, ou|moy? Toy, dist|il.|ou|
 B4 B8 A8 G4 A8 z4 d4 d4 d4 | c6 B2 A4 G4 | F4 A4 A2 A2 A4 | A4 B4 c4 d4- | d2 c2 B2 A2 B8 | %34
w: je soy maul- * dict.» Saint Jehan, dist|el- le, je le|croy, Car tout le mon-|de le me dict,||
 z8 G4 G2 G2 | G4 G4 A4 B4 | c8 B4 B2 B2 | A4 G4 G4 ^F4 | G16 |] %39
w: Car tout le|mon- de le me|dict, Car tout le|mon- de le me|dict.|
V:2
 z8 z4 D4 | D2 D2 D4 z4 D4 | D2 D2 G4 G4 G2 G2 | _E2 E2 G2 G2 G6 F2 | F4 _E4 D8 |"^3" D8 G4 | %6
w: Mon-|sieur bran- loit, mon-|sieur bran- loit, mon- sieur bran-|loit, mon- sieur bran- loit sa|cham- be- rie-|re. Et|
 G8 G4 | F8 _E4 | D8 C4 | D8 F4 | F8 F4 | F8 F4 | F8 D4 |[M:2/2] F8 z4 FF F2 | D4 EE E2 G4 FF F2 | %15
w: el- le|qui la|dance ay-|moit, et|el- le|qui la|dance ay-|moit Re- mu- oit|fort, re- mu- oit fort, re- mu- oit|
 F2 F2 E2 E2 D2 D2 FF F2 | CC C2 E2 E2 G2 G2 E4 | F8 z4 F4 | F4 F4 G4 G4 | G4 G4 C8 | F4 F4 F8 | %21
w: fort bien le der- rie- re, re- mu- oit,|re- mu- oit fort bien le der- rie-|re, En-|fin la gar- se|tou- te fie-|re, Luy dict:|
 E8 D4 D4 | B,4 A,4 B,2 C2 D2 E2 F8 | D8 z4 | D4 D4 D4 | F6 F2 C4 C4 | D4 D4 F8 | G8 | A8 | %29
w: «Mon- sieur, par|vos- * * * * * tre|foy,|Qui le faict|mieulx, ma- dame, ou|moy? Toy, dist|il.|ou|
 G4 G4 F8 D16 z4 F4 F4 F4 | E6 E2 E4 E4 | D6 CB, A,8 | z8 z4 D4 | D2 D2 D4 D4 E4 | F4 G6 F2 E2 D2 | %35
w: je soy maul- dict.» Saint Jehan, dist|el- le, je le|croy, * * *|Car|tout le mon- de le|me dict, * * *|
 E8 F4 F2 F2 | G2 G2 A2 A2 G4 F4 | F2 F2 D2 D2 _E4 D4 | D16 |] %39
w: * Car tout le|mon- de le me dict, Car|tout le mon- de le me|dict.|
V:3
 d4 d2 d2 d6 c2 | B4 A4 G4 B4 | B2 B2 d4 _e4 e2 e2 | c2 c2 _e2 e2 d4 d4 | c4 B4 A8 |"^3" G8 G4 | %6
w: Ung jour que ma- da-|me dor- moit, Mon-|sieur bran- loit, mon- sieur bran-|loit, bran- loit, bran- loit sa|cham- be- rie-|re, Et|
 d8 d4 | c8 B4 | A8 G4 | A8 B4 | B8 B4 | A8 B4 | c8 B4 |[M:2/2] c4 cc c2 A4 dd d2 | %14
w: el- le|qui la|dance ay-|moit, et|et- le|qui la|dance ay-|moit, Re- mu- oit fort, re- mu- oit|
 BB B2 cc c2 d4 dd d2 | A2 A2 c2 c2 B2 G2 dd d2 | AA A2 c2 c2 B2 B2 c4 | d8 z4 d4 | d4 d4 _e4 e4 | %19
w: re- mu- oit re- mu- oit fort, re- mu- oit|fort bien le der- rie- re, re- mu- oit,|re- mu- oit fort bien le der- rie-|re, En-|fin la gar- se|
 d4 d4 G8 | A4 A4 d8 | c8 f8- | f4 f4 d4 B4 c8 | B8 z4 | B4 B4 B4 | c4 c4 F4 G4 | A16 | z4 d4 | %28
w: tou- te fie-|re, Luy dict:|«Mon- sieur,|* par vos- * tre|foy,|Qui le faict|mieulx, ma- dame, ou|moy?|Toy,|
 f8 | d4 d4 d4 c4 B8 A8 z4 A4 B4 B4 | G4 G4 c4 c4 | A8 d4 d2 d2 | d4 d4 e4 f4 | g16 | z8 z4 c4 | %35
w: dist|il. ou je soy maul- dict.» Saint Jehan, dist|el- le, je le|croy, Car tout le|mon- de le me|dict,|Car|
 c2 c2 c4 c4 d4 | e4 f4 d4 d2 d2 | c4 B4 c4 A4 | G16 |] %39
w: tout le mon- de le|me dict, Car tout le|mon- de le me|dict.|
V:4
 z16 | D,4 D,2 D,2 G,8 | G,4 G,2 G,2 C,4 C,4 | C,2 C,4 C,2 G,4 G,2 D,2 | F,4 G,4 D,8 | %5
w: |Mon- sieur bran- loit,|mon- sieur bran- loit, mon-|sieur bran- loit, bran- loit, sa|cham- be- rie-|
"^3" G,8 G,4 | B,8 B,4 | A,8 G,4 | F,8 _E,4 | D,8 B,,4 | B,,8 B,,4 | F,8 B,,4 | F,8 G,4 | %13
w: re, Et|el- le|qui la|dance ay-|moit, et|el- le|qui la|dance ay-|
[M:2/2] F,8 F,F, F,2 D,4 | G,G, G,2 C,4 G,G, G,2 D,2 D,2 | F,2 F,2 C,2 C,2 G,G, G,2 D,4 | %16
w: moit, Re- mu- oit fort,|re- mu- oit fort, re- mu- oit fort hien|le der- rie- re, re- mu- oit fort,|
 F,F, F,2 C,2 C,2 G,2 G,2 A,4 | D,8 z4 D,4 | D,4 D,4 C,4 C,4 | G,6 F,2 _E,8 | D,8 z4 D,4 | %21
w: re- mu- oit fort bien le der- rie-|re, En-|fin la gar- se|tou- te fie-|re, Luy|
 A,8 B,8 | B,4 F,4 G,8 F,8 | B,,4 B,4 B,4 | B,4 G,4 G,4 | F,12 _E,4 | D,8 z4 D,4 | G,8 | F,8 | %29
w: dict: «Mon-|sieur, par vos- tre|foy, Qui le|faict mieulx, ma-|dame, ou|moy? Toy,|dist|il.|
 G,8 D,4 F,4 G,8 D,8 z4 D,4 B,,4 B,,4 | C,6 C,2 C,4 C,4 | D,16 | z16 | G,4 G,2 G,2 G,4 G,4 | %34
w: ou je soy maul- dict.» Saint Jehan, dist|el- le, je le|croy,||Car tout le mon- de|
 A,4 B,4 C8 | C,4 C,2 C,2 F,4 D,4 | C,4 F,4 G,4 D,4 | F,2 F,2 G,2 G,2 C,4 D,4 | G,16 |] %39
w: le me dict,|Car tout le mon- de|le me dict, Car|tout le mon- de le me|dict.|

